img/svg/certif-logo2.svg

<svg width="48" height="30" viewBox="0 0 48 30" fill="none" xmlns="http://www.w3.org/2000/svg">
<path d="M0 29.3967H18.5709V25.5786H4.42779V16.5787H17.4389V12.7749H4.42779V3.81813H18.399V0H0V29.3967Z" fill="black"/>
<path d="M48 0H43.6152V21.5882H43.3429L28.4117 0H24.3135V29.3967H28.7413V7.83721H29.0135L43.9304 29.3967H48V0Z" fill="black"/>
</svg>

<svg width="48" height="30" viewBox="0 0 48 30" fill="none" xmlns="http://www.w3.org/2000/svg"><path d="M0 29.397h18.57v-3.818H4.429v-9h13.01v-3.804H4.429V3.818H18.4V0H0v29.397zM48 0h-4.385v21.588h-.272L28.412 0h-4.098v29.397h4.427V7.837h.273l14.916 21.56H48V0z" fill="#000"/></svg>
